T: Standing Abbey, The
M: 4/4
L: 1/8
K: Gmaj
|:~G3B dggf|(3efe)ce dBGB|cEAc BDGB|ADFA dcBA|
|~G3B dggf|(3efe)ce dBGB|cEAc BDGB|[1 ADFA  G2BA]:|[2 ADFA G2(3AB^c)]|
|:d^cdf afdf|a3b agfe|d^cdf afbf|agfe dcBA|
|~G3B dggf|(3efe)ce dBGB|cEAc BDGB|[1 ADFA G2(3AB^c)]:|[2 ADFA G2(3DEF)]|
